X:1
T:Cock O' the Midden
M:6/8
L:1/8
K:C
 GG| c3- cB A| G2 E CEE| D2 A A2 A| A3- A2 z| Bdd d2 d| d2 d d3| cBA GAF|\
 E3- E2 G| c3- c2 A| G2 E EDC| D2 A AAA| A A2 z2 c| B2 d d2 d| ddd d2 G|\
 GGG GAB| cc z2||
